common/resources/fonts/svg/team.svg

<?xml version="1.0" encoding="UTF-8"?>
<svg width="1024px" height="1024px" viewBox="0 0 1024 1024" version="1.1" xmlns="http://www.w3.org/2000/svg" xmlns:xlink="http://www.w3.org/1999/xlink">
    <!-- Generator: Sketch 47.1 (45422) - http://www.bohemiancoding.com/sketch -->
    <title>team</title>
    <desc>Created with Sketch.</desc>
    <defs>
        <path d="M412.457874,492.537767 C387.290051,483.369106 358.557893,477.109837 327.714286,474.589228 L327.714286,449.268012 C361.547031,430.208496 389.142857,382.692116 389.142857,335.16806 C389.142857,258.859951 389.142857,197 297,197 C204.857143,197 204.857143,258.859951 204.857143,335.16806 C204.857143,382.692116 232.452969,430.208496 266.285714,449.268012 L266.285714,474.589228 C162.096138,483.103835 82,534.279749 82,596.152174 L421.494135,596.152174 C433.326741,627.433874 454.46868,654.121741 478.493506,667.656013 L478.493506,695.279158 C364.832151,704.56782 277.454545,760.39609 277.454545,827.893281 L746.545455,827.893281 C746.545455,760.39609 659.167849,704.56782 545.506494,695.279158 L545.506494,667.656013 C569.53132,654.121741 590.673259,627.433874 602.505865,596.152174 L942,596.152174 C942,534.279749 861.903862,483.103835 757.714286,474.589228 L757.714286,449.268012 C791.547031,430.208496 819.142857,382.692116 819.142857,335.16806 C819.142857,258.859951 819.142857,197 727,197 C634.857143,197 634.857143,258.859951 634.857143,335.16806 C634.857143,382.692116 662.452969,430.208496 696.285714,449.268012 L696.285714,474.589228 C665.442107,477.109837 636.709949,483.369106 611.542126,492.537767 C607.940332,434.205507 591.065025,392.454545 512,392.454545 C432.934975,392.454545 416.059668,434.205507 412.457874,492.537764 Z" id="team-icon-path"></path>
    </defs>
    <g id="Page-1" stroke="none" stroke-width="1" fill="none" fill-rule="evenodd">
        <g id="team">
            <mask id="mask-2" fill="white">
                <use xlink:href="#team-icon-path"></use>
            </mask>
            <use id="Combined-Shape" fill="#2F2F2F" xlink:href="#team-icon-path"></use>
        </g>
    </g>
</svg>

<svg width="1024" height="1024" viewBox="0 0 1024 1024">
    <path fill="#2F2F2F" fill-rule="evenodd" d="M412.458 492.538c-25.168-9.169-53.9-15.428-84.744-17.949v-25.321c33.833-19.06 61.429-66.576 61.429-114.1 0-76.308 0-138.168-92.143-138.168s-92.143 61.86-92.143 138.168c0 47.524 27.596 95.04 61.429 114.1v25.321C162.096 483.104 82 534.28 82 596.152h339.494c11.833 31.282 32.975 57.97 57 71.504v27.623c-113.662 9.289-201.04 65.117-201.04 132.614h469.091c0-67.497-87.377-123.325-201.039-132.614v-27.623c24.025-13.534 45.167-40.222 57-71.504H942c0-61.872-80.096-113.048-184.286-121.563v-25.321c33.833-19.06 61.429-66.576 61.429-114.1 0-76.308 0-138.168-92.143-138.168s-92.143 61.86-92.143 138.168c0 47.524 27.596 95.04 61.429 114.1v25.321c-30.844 2.52-59.576 8.78-84.744 17.949-3.602-58.332-20.477-100.083-99.542-100.083s-95.94 41.75-99.542 100.083z" />
</svg>
